images/icons/header-smartphone.svg

<svg width="10" height="16" viewBox="0 0 10 16" fill="none" xmlns="http://www.w3.org/2000/svg">
<rect width="10" height="16" fill="#E5E5E5"/>
<g clip-path="url(#clip0_1_293)">
<rect width="1600" height="2931" transform="translate(-1243 -32)" fill="white"/>
<rect x="-1243" y="-32" width="1600" height="80" fill="white"/>
<path d="M8.5 0H1.5C0.672848 0 0 0.672848 0 1.5V14.5C0 15.3272 0.672848 16 1.5 16H8.5C9.32715 16 10 15.3272 10 14.5V1.5C10 0.672848 9.32715 0 8.5 0ZM1.5 1H8.5C8.77588 1 9 1.22412 9 1.5V12H1V1.5C1 1.22412 1.22412 1 1.5 1ZM8.5 15H1.5C1.22412 15 1 14.7759 1 14.5V13H9V14.5C9 14.7759 8.77588 15 8.5 15Z" fill="#757575"/>
<path d="M2.35355 13.7389C2.54882 13.9213 2.54882 14.2169 2.35355 14.3992C2.15828 14.5816 1.84172 14.5816 1.64645 14.3992C1.45118 14.2169 1.45118 13.9213 1.64645 13.7389C1.84172 13.5566 2.15828 13.5566 2.35355 13.7389Z" fill="#757575"/>
</g>
<defs>
<clipPath id="clip0_1_293">
<rect width="1600" height="2931" fill="white" transform="translate(-1243 -32)"/>
</clipPath>
</defs>
</svg>

<svg width="10" height="16" fill="none" xmlns="http://www.w3.org/2000/svg"><path fill="#E5E5E5" d="M0 0h10v16H0z"/><g clip-path="url(#a)"><path fill="#fff" d="M-1243-32H357v2931h-1600z"/><path fill="#fff" d="M-1243-32H357v80h-1600z"/><path d="M8.5 0h-7C.673 0 0 .673 0 1.5v13c0 .827.673 1.5 1.5 1.5h7c.827 0 1.5-.673 1.5-1.5v-13C10 .673 9.327 0 8.5 0Zm-7 1h7a.5.5 0 0 1 .5.5V12H1V1.5a.5.5 0 0 1 .5-.5Zm7 14h-7a.5.5 0 0 1-.5-.5V13h8v1.5a.5.5 0 0 1-.5.5Z" fill="#757575"/><path d="M2.354 13.739a.445.445 0 0 1 0 .66.525.525 0 0 1-.708 0 .445.445 0 0 1 0-.66.525.525 0 0 1 .708 0Z" fill="#757575"/></g><defs><clipPath id="a"><path fill="#fff" transform="translate(-1243 -32)" d="M0 0h1600v2931H0z"/></clipPath></defs></svg>
